!!!!SEGMENT: pl-wnifc--493-n--005_oginski-michal-kleofas--16-polonaises-5-les-adieux.krn
!!!cenid: 18xx:3864
!!!COM: Ogiński, Michał Kleofas
!!!COM-rismID: pe30002379
!!!CDT: 1765/09/25-1833/10/15
!!!CNT:
!!!OTL: 16 Polonaises
!!!PDT: 1864
!!!AGN:
!!!SMS-siglum: PL-Wnifc
!!!SMS-shelfmark: 493/n
!!!SMS-shelfwork: 005 W
!!!SMS-variant:
!!!SMS-altvar:
!!!NIFC-rismSourceID: 1001157350
!!!NIFC-rismChildID: 1001157356
!!!NIFC-islandoraID: nifc:212371
!!!URL-pdf-islandora: https://repozytorium.nifc.pl/islandora/object/nifc%3A212371/datastream/PDF/view
!!!URL-scan: https://polish.musicsources.pl/pl/lokalizacje/galeria/druki-muzyczne/16843 @EN{Scan on Polish Music Sources Website} @PL{Skany w portalu Dziedzictwo Muzyki Polskiej w otwartym dostępie}
!!!ONB-nifc: UWAGA: w zbiorze znajduje się 14 Polonezów z Triami, pliki są numerowane jak w źródle.
!!!AIN: 2 piano
!!!key: E-
**kern	**fing	**dynam	**kern	**fing	**dynam
*part2	*part 2	*part2	*part1	*part1	*part1
*staff2	*	*	*staff1	*	*
*I"Piano.	*	*	*I"Piano.	*	*
*Ipiano	*	*	*Ipiano	*	*
*ICklav	*	*	*ICklav	*	*
*clefF4	*	*	*clefG2	*	*
*k[b-e-a-]	*	*	*k[b-e-a-]	*	*
*E-:	*	*	*E-:	*	*
*M3/4	*	*	*M3/4	*	*
=1	=1	=1	=1	=1	=1
!LO:TX:t=P:problem:palcowanie ołówkiem	!	!	!	!LO:TX:t=P:problem:palcowanie ołówkiem	!
(32qqCC/LLL	.	.	(32qqe-/LLL	.	f
32qqEE-/)	.	.	32qqg/)	.	.
!	!	!	!LO:TX:b:i:t=con espressione	!	!
!	!	!	!LO:TX:a:t=Andante patetico.	!	!
32qqGG/JJJ	.	.	32qqcc/JJJ	.	.
8C\L	.	.	(8.ee-^\L	.	.
8c'\J 8e-	.	.	.	.	.
.	.	.	16dd\Jk)	.	.
8c'\L 8e-	.	.	2cc\	.	.
8c'\ 8e-	.	.	.	.	.
8c'\ 8e-	.	.	.	.	.
8c'\J 8e-	.	.	.	.	.
=2	=2	=2	=2	=2	=2
(32qqCC/LLL	.	.	(32qqg/LLL	.	.
32qqEE-/)	.	.	32qqcc/)	.	.
32qqGG/JJJ	.	.	32qqee-/JJJ	.	.
8C\L	.	.	(8.gg^\L	.	.
8c'\J 8e-	.	.	.	.	.
.	.	.	16ff\Jk)	.	.
8c'\L 8e-	.	.	2ee-\	.	.
8c'\ 8e-	.	.	.	.	.
8c'\ 8e-	.	.	.	.	.
8c'\J 8e-	.	.	.	.	.
=3	=3	=3	=3	=3	=3
(32qqCC/LLL	.	.	(32qqcc/LLL	.	.
32qqEE-/)	.	.	32qqee-/)	.	.
32qqGG/JJJ	.	.	32qqgg/JJJ	.	.
8C\L	.	.	4cc\ 4ccc	.	.
8c'\J 8e-	.	.	.	.	.
8c'\L 8e-	.	.	4ee-\ 4eee-	.	.
8c'\ 8e-	.	.	.	.	.
8c'\ 8e-	.	.	16r	.	.
.	.	.	(32ddd\LLL	.	.
.	.	.	32eee-\JJJ	.	.
8c'\J 8e-	.	.	32fff\LLL	.	.
.	.	.	32eee-\	.	.
.	.	.	32ddd\	.	.
.	.	.	32ccc\JJJ)	.	.
*clefG2	*	*	*	*	*
!!LO:LB:g=original
=4	=4	=4	=4	=4	=4
.	.	.	(32qqbbn/LLL	.	>
.	.	.	32qqccc/	.	.
.	.	.	32qqddd/JJJ)	.	.
8d/L	.	.	(8.ccc\L	.	.
8d/J 8f 8g	.	.	.	.	.
.	.	.	16bbn\Jk)	.	]
*tremolo	*	*	*	*	*
8d'/L 8f 8g	.	.	2bb\	.	.
8d'/ 8f 8g	.	.	.	.	.
8d'/ 8f 8g	.	.	.	.	.
8d'/J 8f 8g	.	.	.	.	.
=5	=5	=5	=5	=5	=5
(4Bn:/ 4d: 4f: 4a-:	.	.	(4aa-\	.	>
4c/) 4e- 4g	.	.	4gg\)	.	]]
4r	.	.	4r	.	.
*clefF4	*	*	*	*	*
=6	=6	=6	=6	=6	=6
.	.	.	(>8qg/	.	p
(((4G\ 4Bn 4d	.	.	(8.gg\L)	.	.
.	.	.	16ffn\Jk	.	.
4A-\))) 4c	.	.	4ee-X\)	.	.
4r	.	.	4r	.	.
=7	=7	=7	=7	=7	=7
2F\ 2A- 2d	.	.	(16ee-\LL	2	.
.	.	.	16dd\	1	.
.	.	.	16ff\	3	.
.	.	.	16ee-\JJ	2	.
.	.	.	16dd\LL	1	.
.	.	.	16ff\	.	.
.	.	.	16aa-\	5	.
.	.	.	16gg\JJ	.	.
.	.	.	8qgg/	.	.
4r	.	.	16ff\LL	.	.
.	.	.	16ee-\	.	.
.	.	.	8qee-/	4	.
.	.	.	16dd\	3	.
.	.	.	16cc\JJ)	2	.
=8	=8	=8	=8	=8	=8
8qF#X/	.	.	.	5	.
4G'\	.	.	4bn'\ 4dd 4gg	.	f
4GG'/	.	.	4Bn'/ 4d 4g	.	.
4r	.	.	4r	.	.
*clefG2	*	*	*	*	*
!!LO:LB:g=original
=9||	=9||	=9||	=9||	=9||	=9||
!LO:TX:b:t=[segno]	!	!	!LO:TX:a:t=[segno]	!	!
(8c/L 8e-	.	.	4.g/	.	fp
8G/J)	.	.	.	.	.
*Xtremolo	*	*	*	*	*
(8c/L 8e-	.	.	.	.	.
8G/	.	.	(16cc\LL	3	<
.	.	.	16bn\JJ)	.	.
8c/ 8e-	.	.	(16dd\LL	3	.
.	.	.	16cc\	.	.
8G/J)	.	.	16ee-\	3	.
.	.	.	16dd\JJ)	.	.
=10	=10	=10	=10	=10	=10
(8c/L 8e-	.	.	(16ff\LL	3	.
.	.	.	16ee-\	.	.
8G/J)	.	.	16gg\	3	.
.	.	.	16ff\JJ)	.	.
(8c/L 8e-	.	.	(16aa-\LL	3	.
.	.	.	16gg\	.	.
8G/	.	.	16ff\	1	.
.	.	.	16ee-\JJ)	.	.
8c/ 8e-	.	.	(16dd\LL	.	.
.	.	.	16cc\	.	.
8G/J)	.	.	16bn\	.	.
.	.	.	16cc\JJ)	.	[[
=11	=11	=11	=11	=11	=11
.	.	.	(32qqgg/LLL	.	>
.	.	.	32qqaa-/	.	.
.	.	.	32qqbb-/JJJ	.	.
(8Bn/L 8d 8f	.	.	(8.aa-\L)	.	.
8g/J)	.	.	.	.	.
.	.	.	16gg\Jk)	.	.
(8B/L 8d 8f	.	.	4gg\	.	.
8g/	.	.	.	.	]
*	*	*	*clefF4	*	*
8B/ 8d 8f	.	.	8r	.	.
8g/J)	.	.	8G\	.	.
!!LO:LB:g=original
=12	=12	=12	=12	=12	=12
(8Bn/L 8d 8f	.	.	(8.A-X^\L	.	pp
8g/J)	.	.	.	.	.
.	.	.	16G\Jk)	.	.
(8B/L 8d 8f	.	.	2G\	.	.
8g/	.	.	.	.	.
8B/ 8d 8f	.	.	.	.	.
8g/J)	.	.	.	.	.
=13	=13	=13	=13	=13	=13
.	.	.	(32qqBBn/LLL	.	f
.	.	.	32qqC/.	.	.
.	.	.	32qqD/JJJ	.	.
(8c/L 8e-	.	.	4C/)	.	.
8G/J)	.	.	.	.	.
*	*	*	*clefG2	*	*
(8c/L 8e-	.	.	16r	.	p
.	.	.	(16g/LL	.	.
8G/	.	.	16g#X/	.	.
.	.	.	16an/JJ)	.	.
8c/ 8e-	.	.	(16b-X\LL	.	.
.	.	.	16bn\	.	.
8G/J)	.	.	16cc\	.	.
.	.	.	16cc#X\JJ)	.	.
=14	=14	=14	=14	=14	=14
(8c/L 8e-	.	.	(16dd\LL	.	<
.	.	.	16ee-\	.	.
8g/J)	.	.	16een\	.	.
.	.	.	16ff\JJ	.	.
(8c/L 8e-	.	.	16ff#X\LL	.	.
.	.	.	16gg\	.	.
8g/	.	.	16aa-X\	.	.
.	.	.	16gg\JJ	.	.
8c/ 8e-	.	.	16ffn\LL	.	.
.	.	.	16ee-X\	.	.
8g/J)	.	.	16dd\	.	.
.	.	.	16ccn\JJ)	.	[[
!!LO:PB:g=original
=15	=15	=15	=15	=15	=15
.	.	.	(32qqgg/LLL	.	>
.	.	.	32qqaa-/	.	.
.	.	.	32qqbb-/JJJ	.	.
(8Bn/L 8d 8f	.	.	(8.aa-\L)	.	.
8g/J)	.	.	.	.	.
.	.	.	16gg\Jk)	.	.
(8B/L 8d 8f	.	.	2gg\	.	]]
8g/	.	.	.	.	.
8B/ 8d 8f	.	.	.	.	.
8g/J)	.	.	.	.	.
*	*	*	*clefF4	*	*
=16	=16	=16	=16	=16	=16
.	.	.	(32qqG/LLL	.	pp
.	.	.	32qqA-/	.	.
.	.	.	32qqB-/JJJ	.	.
(8Bn/L 8d 8f	.	.	(8.A-\L)	.	.
8g/J)	.	.	.	.	.
.	.	.	16G\Jk)	.	.
(8B/L 8d 8f	.	.	2G\	.	.
8g/	.	.	.	.	.
8B/ 8d 8f	.	.	.	.	.
8g/J)	.	.	.	.	.
*	*	*	*clefG2	*	*
=17	=17	=17	=17	=17	=17
(4ee-\ 4gg	.	.	(4ccc\	.	fp >
4dd\) 4ff	.	.	8bbn\L)	.	.
.	.	.	8gg'\	.	]]
4r	.	.	8gg'\	.	.
.	.	.	8gg'\J	.	.
=18	=18	=18	=18	=18	=18
(4cc\ 4ee-	.	.	(8.bb-X\L	.	fp >
.	.	.	16aa-X\Jk)	.	]
4bn\) 4dd	.	.	8gg'\L	.	.
.	.	.	8gg'\	.	.
4r	.	.	8gg'\	.	.
.	.	.	8gg'\J	.	.
!!LO:LB:g=original
=19	=19	=19	=19	=19	=19
4e-/ 4g 4cc	.	.	(16gg\LL	.	>
!	!	!	!LO:TURN:facc	!	!
.	.	.	16ggsSSs\	.	.
.	.	.	16aa-\	.	.
.	.	.	16gg\JJ	.	.
4e-/ 4g 4cc	.	.	16ffn\LL	.	.
.	.	.	16ee-\	.	.
.	.	.	16dd\	.	.
.	.	.	16cc\JJ)	.	]
4f/ 4a-	.	.	(16dd\LL	.	<
.	.	.	16aa-\)	.	.
.	.	.	16ff'\	.	.
.	.	.	16dd'\JJ	.	[[
=20	=20	=20	=20	=20	=20
8g/L	.	.	(16ee-\LL	.	.
.	.	.	16gg\)	.	.
8G/J	.	.	16ff'\	.	.
.	.	.	16dd'\JJ	.	.
*clefF4	*	*	*	*	*
8r	.	.	((4f/ 4dd	.	.
8G\L	.	.	.	.	.
8C\J 8c	.	.	8e-/)) 8cc	.	.
!	!	!	!LO:TX:b:i:t=Fine.	!	!
8r	.	.	8r	.	.
*clefG2	*	*	*	*	*
=21:|!	=21:|!	=21:|!	=21:|!	=21:|!	=21:|!
!	!	!	!LO:TX:b:i:t=con espress.	!	!
(8e-/L 8g	.	.	(4.ee-\	.	p
8B-/J)	.	.	.	.	.
(8e-/L 8g	.	.	.	.	.
8B-/	.	.	8ff\L	.	.
8e-/ 8g	.	.	8gg\	.	.
8B-/J)	.	.	8aa-\J)	.	.
!!LO:LB:g=original
=22	=22	=22	=22	=22	=22
(8d/L 8a-	.	.	8.een\L	.	.
8B-/J)	.	.	.	.	.
.	.	.	16ff\Jk	.	.
.	.	.	(32qqee-X/LLL	.	.
.	.	.	32qqff/	.	.
.	.	.	32qqgg/JJJ	.	.
(8d/L 8a-	.	.	2ff\)	.	.
8B-/	.	.	.	.	.
8d/ 8a-	.	.	.	.	.
8B-/J)	.	.	.	.	.
=23	=23	=23	=23	=23	=23
.	.	.	8qee-/	.	.
(8Bn/L 8f	.	.	4.ff\	.	.
8g/J)	.	.	.	.	.
(8B/L 8f	.	.	.	.	.
8g/	.	.	8ff#X\	.	>
8B/ 8f	.	.	(8.gg\L	.	.
8g/J)	.	.	.	.	.
.	.	.	16dd\Jk)	.	]]
=24	=24	=24	=24	=24	=24
(8c/L 8e-	.	.	8.ffn\L	.	.
8g/J)	.	.	.	.	.
.	.	.	16een\Jk	.	.
(8c/L 8e-	.	.	2ee-X\	.	.
8g/	.	.	.	.	.
8c/ 8e-	.	.	.	.	.
8g/J)	.	.	.	.	.
=25	=25	=25	=25	=25	=25
.	.	fp	(8qgg/	.	>
(16f/LL	.	.	4.bn\)	.	.
16g/	.	.	.	.	.
16f/	.	.	.	.	.
16g/JJ)	.	.	.	.	.
(16f/LL	.	.	.	.	.
16g/	.	.	.	.	.
16f/	.	.	8b\	.	]
16g/JJ)	.	.	.	.	.
(16e-/LL	.	.	8.cc\L	.	.
16g/	.	.	.	.	.
16e-/	.	.	.	.	.
16g/JJ)	.	.	16ee-\Jk	.	.
!!LO:LB:g=original
=26	=26	=26	=26	=26	=26
16Bn/LL	.	fp	4.dd\	.	>
16g/	.	.	.	.	.
16B/	.	.	.	.	.
16g/JJ	.	.	.	.	.
16B/LL	.	.	.	.	.
16g/	.	.	.	.	.
.	.	.	(32qqee-/LLL	.	.
.	.	.	32qqdd/)	.	.
.	.	.	32qqcc/JJJ	.	.
16B/	.	.	8dd\	.	.
16g/JJ	.	.	.	.	.
16c/LL	.	.	(8ee-\L	.	] p
16g/	.	.	.	.	.
16c/	.	.	8cc\J)	.	.
16g/JJ	.	.	.	.	.
*clefF4	*	*	*	*	*
=27	=27	=27	=27	=27	=27
16F#X\LL	.	.	(4.cc\	.	f >
16e-\	.	.	.	.	.
16c\	.	.	.	.	.
16e-\JJ	.	.	.	.	.
16c\LL	.	.	.	.	.
16e-\	.	.	.	.	.
16c\	.	.	8dd\	.	.
16e-\JJ	.	.	.	.	.
16F#\LL	.	.	16ff\LL	.	.
16e-\	.	.	16ee-\	.	.
16c\	.	.	16dd\	.	.
16e-\JJ	.	.	16cc\JJ)	.	]
=28	=28	=28	=28	=28	=28
2GG/ 2G	.	.	(16bn\LL 16dd	.	.
.	.	.	16gg\	.	.
.	.	.	16cc\ 16ee-	.	.
.	.	.	16gg\JJ)	.	.
.	.	.	(16dd\LL 16ff	.	pp
.	.	.	16gg\	.	.
.	.	.	16cc\ 16ee-	.	.
.	.	.	16gg\JJ)	.	.
!LO:TX:b:i:t=Dal Segno\nal Fine.	!	!	!	!	!
4r	.	.	(16dd\LL 16ff	.	.
.	.	.	16gg\	.	.
.	.	.	16b\ 16dd	.	.
.	.	.	16gg\JJ)	.	.
!LO:TX:b:t=[segno]	!	!	!LO:TX:t=[segno]	!	!
*clefG2	*	*	*	*	*
!!LO:PB:g=original
=29||	=29||	=29||	=29||	=29||	=29||
*k[]	*	*	*k[]	*	*
!	!	!	!LO:TX:b:i:t=dolce.	!	!
!	!	!	!LO:TX:a:t=Maggiore.	!	!
!	!	!	!LO:TX:a:t=Trio.	!	!
.	.	.	(8qdd#X/	.	p
(8c/L 8e	.	.	4.ee\)	.	.
8G/J)	.	.	.	.	.
(8c/L 8e	.	.	.	.	.
8G/	.	.	(16aa\LL	3	.
.	.	.	16gg\JJ	.	.
8c/ 8e	.	.	16ff\LL	.	.
.	.	.	16ee\	.	.
8G/J)	.	.	16dd#\	1	.
.	.	.	16cc\JJ)	2	.
=30	=30	=30	=30	=30	=30
(8B/L 8f	.	.	8dd\L	3	.
.	.	.	(32qqee/LLL	.	.
.	.	.	32qqdd/)	.	.
.	.	.	32qqcc#X/JJJ	.	.
8G/J)	.	.	16.dd\L	.	.
.	.	.	32ee\JJk	.	.
*tremolo	*	*	*	*	*
(8B/L 8f	.	.	4ff\	.	.
8G/	.	.	.	.	.
8B/ 8f	.	.	4r	.	.
8G/J)	.	.	.	.	.
*Xtremolo	*	*	*	*	*
=31	=31	=31	=31	=31	=31
.	.	.	(8qee/	.	>
(8c/L 8e	.	.	[4eee\)	.	.
8G/J)	.	.	.	.	.
(8c/L 8e	.	.	16eee\LL]	.	.
.	.	.	(16ddd\	.	.
8G/	.	.	16ccc\	.	.
.	.	.	16bb\JJ	.	.
8c/ 8e	.	.	16aa\LL	.	.
.	.	.	16gg\	.	.
8G/J)	.	.	16ff\	.	.
.	.	.	16ee\JJ)	.	]
!!LO:LB:g=original
=32	=32	=32	=32	=32	=32
.	.	.	(8qg/	.	.
(8B/L 8f	.	.	(8.gg\L)	.	.
8G/J)	.	.	.	.	.
.	.	.	16ff#X\Jk)	.	.
(8B/L 8f	.	.	4.ffn\	.	.
8G/	.	.	.	.	.
8B/ 8f	.	.	.	.	.
8G/J)	.	.	8r	.	.
=33	=33	=33	=33	=33	=33
4c/ 4e	.	.	8g^\L 8ee	.	f
.	.	.	(32qqff/LLL	.	.
.	.	.	32qqee/	.	.
.	.	.	32qqdd#X/JJJ)	.	.
.	.	.	16.ee\L	.	.
.	.	.	32ff\JJk	.	.
8r	.	.	8gg\	.	.
(8G/L 8B	5 3	.	(8gg\L	.	p
8A/ 8c	4 2	.	8ff#X\	.	.
8B/J) 8d	3 1	.	8ffn\J)	.	.
=34	=34	=34	=34	=34	=34
4c/ 4e	2 1	.	8.g\L 8.cc 8.ee	.	f
!	!	!	!LO:TUP:a	!	!
.	.	.	(48ff\LL	.	.
.	.	.	48ee\	.	.
.	.	.	48dd\JJJ)	.	.
8r	.	.	8cc'\L	.	.
*	*below	*	*	*	*
(8c/L 8e	3 5	.	(8g\ 8cc	.	>
8d/ 8f	2 4	.	8b\	.	.
8e/J) 8g	1 3	.	8cc\J)	.	]
!!LO:LB:g=original
=35	=35	=35	=35	=35	=35
*	*^	*	*	*	*
4f/ 4a	1	2	.	16a\LL	.	p
.	.	.	.	(16cc#X\	.	.
.	.	.	.	16dd\)	.	.
.	.	.	.	(16ee\JJ	.	.
4f/ 4a	.	.	.	16ff\LL)	.	.
.	.	.	.	(16gg#X\	.	.
.	.	.	.	16bb\)	.	.
.	.	.	.	(16aa\JJ	.	.
4f/ 4a	.	.	.	16ggn\LL)	.	.
.	.	.	.	(16ff\	.	.
.	.	.	.	16ee\)	.	.
.	.	.	.	16dd'\JJ	.	.
*	*v	*v	*	*	*	*
=36	=36	=36	=36	=36	=36
8g/L	.	.	(16ee\LL	.	.
.	.	.	16gg\)	.	.
8G/J	.	.	16ff'\	.	.
.	.	.	16dd'\JJ	.	.
*clefF4	*	*	*	*	*
8r	.	.	((4f/ 4dd	.	.
(8GG/L	.	.	.	.	.
8C/J)	.	.	8e/)) 8cc	.	.
!	!	!	!LO:TX:b:i:t=Fine.	!	!
8r	.	.	8r	.	.
=37:|!|:	=37:|!|:	=37:|!|:	=37:|!|:	=37:|!|:	=37:|!|:
16G#X\LL	.	.	4.ee\	.	f >
16e\	.	.	.	.	.
16B\	.	.	.	.	.
16e\JJ	.	.	.	.	.
16B\LL	.	.	.	.	.
16e\	.	.	.	.	.
16B\	.	.	8ee'\L	.	]
16e\JJ	.	.	.	.	.
16B\LL	.	.	8ee'\	.	.
16e\	.	.	.	.	.
16G#\	.	.	8ee'\J	.	.
16e\JJ	.	.	.	.	.
!!LO:LB:g=original
=38	=38	=38	=38	=38	=38
16A\LL	.	.	(8.ee\L	.	>
16e\	.	.	.	.	.
16c\	.	.	.	.	.
16e\JJ	.	.	16ff\Jk)	.	.
16c\LL	.	.	2ee\	.	]
16e\	.	.	.	.	.
16c\	.	.	.	.	.
16e\JJ	.	.	.	.	.
16c\LL	.	.	.	.	.
16e\	.	.	.	.	.
16A\	.	.	.	.	.
16e\JJ	.	.	.	.	.
=39	=39	=39	=39	=39	=39
.	.	.	8qee/	.	f
16E\LL	.	.	[4bb\	.	.
16d\	.	.	.	.	.
16G#X\	.	.	.	.	.
16d\JJ	.	.	.	.	.
16E\LL	.	.	16bb\LL]	.	.
16d\	.	.	16aa'\	.	.
16G#\	.	.	16gg#X'\	.	.
16d\JJ	.	.	16ff'\JJ	.	.
16E\LL	.	.	16ee'\LL	.	.
16d\	.	.	16dd'\	.	.
16G#\	.	.	16cc'\	.	.
16d\JJ	.	.	16b'\JJ	.	.
=40	=40	=40	=40	=40	=40
.	.	.	8qdd#X/	.	.
16A\LL	.	.	8.ee\L	.	.
16e\	.	.	.	.	.
16c\	.	.	.	.	.
16e\JJ	.	.	16ddn\Jk	.	.
16c\LL	.	.	2cc\	.	.
16e\	.	.	.	.	.
16c\	.	.	.	.	.
16e\JJ	.	.	.	.	.
16c\LL	.	.	.	.	.
16e\	.	.	.	.	.
16A\	.	.	.	.	.
16e\JJ	.	.	.	.	.
!!LO:LB:g=original
=41	=41	=41	=41	=41	=41
(16Gn\LL	.	.	4.b^\	.	.
16g\	.	.	.	.	.
16fn\	.	.	.	.	.
16g\JJ)	.	.	.	.	.
(16f\LL	.	.	.	.	.
16g\	.	.	.	.	.
16f\	.	.	(16aa\LL	.	.
16g\JJ)	.	.	16gg\JJ)	.	.
(16f\LL	.	.	8b'\L	.	.
16g\	.	.	.	.	.
16f\	.	.	(16aa\L	.	.
16g\JJ)	.	.	16gg\JJ)	.	.
=42	=42	=42	=42	=42	=42
(16G\LL	.	.	(16cc\LL	.	.
16g\	.	.	16ee\	.	.
16e\	.	.	16gg\	.	.
16g\JJ)	.	.	16ff#X\JJ	.	.
(16e\LL	.	.	16aa\LL	.	.
16g\	.	.	16gg\	.	.
16e\	.	.	16ff#\	.	.
16g\JJ)	.	.	16gg\JJ	.	.
(16e\LL	.	.	16ffn\LL	.	.
16g\	.	.	16ee\	.	.
16e\	.	.	16dd\	.	.
16g\JJ)	.	.	16cc\JJ)	.	.
=43	=43	=43	=43	=43	=43
!	!	!	!	!	!LO:HP:a
(16G\LL	.	.	(16gg\KL	.	>
16g\	.	.	8b\)	.	.
16f\	.	.	.	.	.
16g\JJ)	.	.	16gg\Jk	.	]
!	!	!	!	!	!LO:HP:a
(16e\LL	.	.	(16gg\KL	.	>
16g\	.	.	8cc\)	.	.
16e\	.	.	.	.	.
16g\JJ)	.	.	16gg\Jk	.	]
.	.	.	8qgg/	.	.
(16B\LL	.	.	(8ff\L	.	.
16g\	.	.	.	.	.
16c\	.	.	8ee\J)	.	.
16g\JJ)	.	.	.	.	.
=44	=44	=44	=44	=44	=44
8G\L 8B	.	.	16dd'\LL	.	<
.	.	.	(16ff#X\	.	.
8A\J 8c	.	.	16gg\)	.	.
.	.	.	(16ff#\JJ	.	.
8B\L 8d	.	.	16gg\LL)	.	[ >
.	.	.	(16ff#\	.	.
8c\J 8e	.	.	16gg\)	.	.
.	.	.	(16ff#\JJ	.	.
8d\L 8f	.	.	16gg\LL)	.	.
.	.	.	(16ff#\	.	.
!LO:TX:b:i:t=Trio da Capo\nal Fine.	!	!	!	!	!
8G\J 8d	.	.	16gg\)	.	.
.	.	.	16ffn'\JJ	.	]
==	==	==	==	==	==
*-	*-	*-	*-	*-	*-
!!!RDF**kern: > = above
!!!RDF**kern: < = below
!!!system-decoration: [(s1,s2)]
!!!ENC: Berenika Jozajtis
!!!END: 2022-07-24
!!!ENC: Urszula Świątek
!!!END: 2022-08-22
!!!YEC: Copyright 2022 Narodowy Instytut Fryderyka Chopina (https://polishscores.org)
!!!YEM: License CC-BY-4.0 (https://creativecommons.org/licenses/by/4.0)
